src/oreo_teal_cursors/openhand.svg

<svg xmlns="http://www.w3.org/2000/svg" id="svg6031" width="32" height="32" version="1.1">
 <defs id="defs6033">
  <filter id="filter852" style="color-interpolation-filters:sRGB" width="1.098" height="1.094" x="-.05" y="-.05">
   <feGaussianBlur id="feGaussianBlur854" stdDeviation=".43"/>
  </filter>
  <filter id="filter901" style="color-interpolation-filters:sRGB" width="1.098" height="1.094" x="-.05" y="-.05">
   <feGaussianBlur id="feGaussianBlur903" stdDeviation=".43"/>
  </filter>
  <filter id="filter854" style="color-interpolation-filters:sRGB" width="1.123" height="1.117" x="-.06" y="-.06">
   <feGaussianBlur id="feGaussianBlur856" stdDeviation=".538"/>
  </filter>
  <filter id="filter829" style="color-interpolation-filters:sRGB" width="1.147" height="1.141" x="-.07" y="-.07">
   <feGaussianBlur id="feGaussianBlur831" stdDeviation=".645"/>
  </filter>
  <filter id="filter830" style="color-interpolation-filters:sRGB" width="1.196" height="1.188" x="-.1" y="-.09">
   <feGaussianBlur id="feGaussianBlur832" stdDeviation=".94"/>
  </filter>
 </defs>
 <path id="path828" style="display:inline;opacity:0.3;fill:#000000;fill-opacity:1;stroke:none;stroke-width:1.16642904;filter:url(#filter830)" d="m 15.320312,5.5039062 c -0.916218,0.055667 -1.699581,0.9424449 -1.640624,1.859375 l 0.474609,8.2773438 c 0.02366,0.413466 -0.464033,0.498735 -0.521485,0.183594 L 12.435547,8.0644531 C 12.31028,7.1982419 11.450157,6.5066747 10.578125,6.5703125 9.6186428,6.6566722 8.8473949,7.6611144 9.0117188,8.6113281 L 10.681641,19.695312 c 0.119249,0.326154 -0.03711,0.91211 -0.03711,0.91211 C 4.8153591,14.772307 4,18.966797 4,18.966797 c 2.1306306,1.439984 3.695192,4.384272 5.2148438,6.794922 0.036277,0.05755 0.078046,0.09453 0.1152343,0.148437 C 10.76227,28.071951 13.712615,29.5 16.5,29.5 c 3.742366,0 6.376194,-2.573772 7.25,-6.044922 0.595657,-2.003266 1.176057,-4.030176 1.453125,-5.224609 l 1.75,-7.539063 c 0.279838,-1.0729607 -0.71751,-2.2695533 -1.822266,-2.1874998 -0.747301,0.042829 -1.43314,0.6199861 -1.603515,1.3496094 l -1.615235,6.4453124 c -0.08723,0.321014 -0.157664,0.191968 -0.144531,-0.07422 L 22.203125,7.3632812 C 22.267005,6.3733771 21.3346,5.4399535 20.345703,5.5039062 19.49089,5.5568883 18.741168,6.324999 18.707031,7.1816406 l -0.40039,8.0957034 c -0.02036,0.4114 -0.666679,0.418763 -0.691407,-0.03711 l -0.4375,-8.0585934 C 17.140774,6.2520251 16.247861,5.4451234 15.320312,5.5039062 Z"/>
 <path id="path4236-1-58-5-6" style="display:inline;fill:#009789;fill-opacity:1;stroke:none;stroke-width:1.16642904" d="m 15.320312,4.0039062 c -0.916218,0.055667 -1.699581,0.9424449 -1.640624,1.859375 l 0.474609,8.2773438 c 0.02366,0.413466 -0.464033,0.498735 -0.521485,0.183594 L 12.435547,6.5644531 C 12.31028,5.6982419 11.450157,5.0066747 10.578125,5.0703125 9.6186428,5.1566722 8.8473949,6.1611144 9.0117188,7.1113281 L 10.681641,18.195312 c 0.119249,0.326154 -0.03711,0.91211 -0.03711,0.91211 C 4.8153591,13.272307 4,17.466797 4,17.466797 c 2.1306306,1.439984 3.695192,4.384272 5.2148438,6.794922 0.036277,0.05755 0.078046,0.09453 0.1152343,0.148437 C 10.76227,26.571951 13.712615,28 16.5,28 c 3.742366,0 6.376194,-2.573772 7.25,-6.044922 0.595657,-2.003266 1.176057,-4.030176 1.453125,-5.224609 l 1.75,-7.5390628 c 0.279838,-1.0729609 -0.71751,-2.2695535 -1.822266,-2.1875 -0.747301,0.042829 -1.43314,0.6199861 -1.603515,1.3496094 l -1.615235,6.4453124 c -0.08723,0.321014 -0.157664,0.191968 -0.144531,-0.07422 L 22.203125,5.8632812 C 22.267005,4.8733771 21.3346,3.9399535 20.345703,4.0039062 19.49089,4.0568883 18.741168,4.824999 18.707031,5.6816406 l -0.40039,8.0957034 c -0.02036,0.4114 -0.666679,0.418763 -0.691407,-0.03711 l -0.4375,-8.0585934 C 17.140774,4.7520251 16.247861,3.9451234 15.320312,4.0039062 Z"/>
</svg>

<svg xmlns="http://www.w3.org/2000/svg" viewBox="0 0 32 32"><defs><filter id="a" width="1.196" height="1.188" x="-.1" y="-.09" color-interpolation-filters="sRGB"><feGaussianBlur stdDeviation=".94"/></filter></defs><path d="M15.3203 5.504c-.9162.0556-1.6996.9424-1.6406 1.8593l.4746 8.2773c.0237.4135-.464.4988-.5215.1836l-1.1973-7.7597c-.1252-.8663-.9853-1.5578-1.8574-1.4942-.9595.0864-1.7307 1.0908-1.5664 2.041l1.67 11.084c.1192.3262-.0372.9121-.0372.9121C4.8154 14.7724 4 18.9668 4 18.9668c2.1306 1.44 3.6952 4.3843 5.2148 6.795.0363.0575.078.0944.1153.1484C10.7623 28.072 13.7126 29.5 16.5 29.5c3.7424 0 6.3762-2.5738 7.25-6.045.5957-2.0032 1.176-4.0301 1.4531-5.2245l1.75-7.539c.2799-1.073-.7175-2.2696-1.8222-2.1876-.7473.0428-1.4332.62-1.6036 1.3496l-1.6152 6.4453c-.0872.321-.1577.192-.1445-.0742l.4355-8.8613c.064-.99-.8685-1.9233-1.8574-1.8594-.8548.053-1.6045.8211-1.6387 1.6777l-.4004 8.0957c-.0203.4114-.6666.4188-.6914-.037l-.4375-8.0587c-.037-.9296-.9298-1.7365-1.8574-1.6777z" opacity=".3" filter="url(#a)"/><path d="M15.3203 4.004c-.9162.0556-1.6996.9424-1.6406 1.8593l.4746 8.2773c.0237.4135-.464.4988-.5215.1836l-1.1973-7.7597c-.1252-.8663-.9853-1.5578-1.8574-1.4942-.9595.0864-1.7307 1.0908-1.5664 2.041l1.67 11.084c.1192.3262-.0372.9121-.0372.9121C4.8154 13.2724 4 17.4668 4 17.4668c2.1306 1.44 3.6952 4.3843 5.2148 6.795.0363.0575.078.0944.1153.1484C10.7623 26.572 13.7126 28 16.5 28c3.7424 0 6.3762-2.5738 7.25-6.045.5957-2.0032 1.176-4.0301 1.4531-5.2245l1.75-7.539c.2799-1.073-.7175-2.2696-1.8222-2.1876-.7473.0428-1.4332.62-1.6036 1.3496l-1.6152 6.4453c-.0872.321-.1577.192-.1445-.0742l.4355-8.8613c.064-.99-.8685-1.9233-1.8574-1.8594-.8548.053-1.6045.8211-1.6387 1.6777l-.4004 8.0957c-.0203.4114-.6666.4188-.6914-.037l-.4375-8.0587c-.037-.9296-.9298-1.7365-1.8574-1.6777z" fill="#009789"/></svg>
